X: 1330
T: An Paistin Fionn
R: hornpipe
M: 4/4
K: Edorian
(3Bcd|:e>gfe d>efd|g>aag f2gf|e>fed BAGA|B>dcA B2 (3Bcd|
e>gfe d>efd|g>bag f2gf|e>fed BAFB|1 E2 ED E2 (3Bcd:|2 E2 ED E2 EF||
|:G>ABc d>BBd|c>AAc d>BBA|G>ABc dBBA|B>eed e2 (3DEF|
G>ABc d>BBA|B>eef g3f|e>fed B>AFB|1 E2 ED E2 EF:|2 E2 ED E2 (3Bcd||

